X:5
T:Martin Wynne's #4
C:Martin Wynne
R:reel
D:Brian Conway, First Through the Gate
Z:Paul Stewart Cranford (P.S.C.), <http://www.cranfordpub.com>
L:1/8
Q:333
M:C|
K:G
A|BGAG EDB,C|DGBA GBAG|EB, ~B,2 G,A,B,C|(3(EFG) AB cedc|
BGAG EDB,C|DGBA GBAG|EB, ~B,2 G,A,B,C|(3(EFG) Ac BGG||
||A|B2 (3(dcB) cedc|BGDB EAAc|Bc{e}dB dega|bg ~g2ea{b}ag|
bg ~g2 aegf|eBdB GA (3(Bcd)|eBdB cBAG|(3(EFG) Ac BGG|]
